svgs/thin/truck-flatbed.svg

<svg xmlns="http://www.w3.org/2000/svg" viewBox="0 0 640 512"><!--! Font Awesome Pro 6.5.1 by @fontawesome - https://fontawesome.com License - https://fontawesome.com/license (Commercial License) Copyright 2023 Fonticons, Inc. --><path d="M400 120c0-13.3 10.7-24 24-24h50.7c10.6 0 20.8 4.2 28.3 11.7L596.3 201c7.5 7.5 11.7 17.7 11.7 28.3V400h24c4.4 0 8 3.6 8 8s-3.6 8-8 8H575.6c.2 2.6 .4 5.3 .4 8c0 48.6-39.4 88-88 88s-88-39.4-88-88c0-2.7 .1-5.4 .4-8H239.6c.2 2.6 .4 5.3 .4 8c0 48.6-39.4 88-88 88s-88-39.4-88-88c0-2.7 .1-5.4 .4-8H8c-4.4 0-8-3.6-8-8s3.6-8 8-8H67.3c10.4-36.9 44.4-64 84.7-64s74.2 27.1 84.7 64H400V120zm16 253.4c15.9-22.6 42.2-37.4 72-37.4c40.3 0 74.2 27.1 84.7 64H592V232H416V373.4zM416 216H588c-.9-1.3-1.9-2.6-3-3.7L491.7 119c-4.5-4.5-10.6-7-17-7H424c-4.4 0-8 3.6-8 8v96zM152 496a72 72 0 1 0 0-144 72 72 0 1 0 0 144zm408-72a72 72 0 1 0 -144 0 72 72 0 1 0 144 0z"/></svg>

<svg xmlns="http://www.w3.org/2000/svg" viewBox="0 0 640 512"><!--! Font Awesome Pro 6.1.1 by @fontawesome - https://fontawesome.com License - https://fontawesome.com/license (Commercial License) Copyright 2022 Fonticons, Inc. --><path d="M400 120C400 106.7 410.7 96 424 96H474.7C485.4 96 495.5 100.2 503 107.7L596.3 200.1C603.8 208.5 608 218.6 608 229.3V400H632C636.4 400 640 403.6 640 408C640 412.4 636.4 416 632 416H575.6C575.9 418.6 576 421.3 576 424C576 472.6 536.6 512 488 512C439.4 512 400 472.6 400 424C400 421.3 400.1 418.6 400.4 416H239.6C239.9 418.6 240 421.3 240 424C240 472.6 200.6 512 152 512C103.4 512 64 472.6 64 424C64 421.3 64.12 418.6 64.36 416H8C3.582 416 0 412.4 0 408C0 403.6 3.582 400 8 400H67.31C77.76 363.1 111.7 336 152 336C192.3 336 226.2 363.1 236.7 400H400L400 120zM416 373.4C431.9 350.8 458.2 336 488 336C528.3 336 562.2 363.1 572.7 400H592V232H416V373.4zM416 216H588C587.1 214.7 586.1 213.4 584.1 212.3L491.7 119C487.2 114.5 481.1 112 474.7 112H424C419.6 112 416 115.6 416 120V216zM152 496C191.8 496 224 463.8 224 424C224 384.2 191.8 352 152 352C112.2 352 80 384.2 80 424C80 463.8 112.2 496 152 496zM488 352C448.2 352 416 384.2 416 424C416 463.8 448.2 496 488 496C527.8 496 560 463.8 560 424C560 384.2 527.8 352 488 352z"/></svg>
